X:4141
L:1/8
Q:1/4=92
M:6/8
K:C
 G | A2 G A2 B | c3 G2 G | A2 G A2 B | c3 z2 G | A2 G A2 B | c3 G2 G | A2 G A2 B | c3 efg | 
 f2 e (dc)B | e2 c efg | f2 e (dc)B | c3 efg | f2 e (dc)d | e2 c efg | f2 e (dc)B | c5G | 
 c2 B A2 G | A2 B c2 G | c2 B A2 G | A2 B c3- | c3 efg | f2 e (dc)B | e2 c dfg | f2 e (dc)B | 
 c3 efg | f2 e (dc)d | e2 c efg | f2 e (dc)B |[M:5/8] c5 |]

